documentation/public/assets/images/textarea-variant-4.svg

<svg width="672" height="188" viewBox="0 0 672 188" fill="none" xmlns="http://www.w3.org/2000/svg">
<rect width="672" height="188" fill="#F6F6F6"/>
<path d="M192.004 42V31.8182H193.849V40.4538H198.333V42H192.004ZM202.052 42.1541C201.568 42.1541 201.132 42.0679 200.744 41.8956C200.36 41.7199 200.055 41.4614 199.83 41.12C199.607 40.7786 199.496 40.3577 199.496 39.8572C199.496 39.4264 199.576 39.0701 199.735 38.7884C199.894 38.5066 200.111 38.2812 200.386 38.1122C200.661 37.9432 200.971 37.8156 201.316 37.7294C201.664 37.6399 202.024 37.5753 202.395 37.5355C202.842 37.4891 203.205 37.4477 203.484 37.4112C203.762 37.3714 203.964 37.3118 204.09 37.2322C204.219 37.1494 204.284 37.0218 204.284 36.8494V36.8196C204.284 36.4451 204.173 36.1551 203.951 35.9496C203.729 35.7441 203.409 35.6413 202.991 35.6413C202.551 35.6413 202.201 35.7375 201.942 35.9297C201.687 36.1219 201.515 36.349 201.425 36.6108L199.745 36.3722C199.878 35.9081 200.096 35.5204 200.401 35.2088C200.706 34.8939 201.079 34.6586 201.52 34.5028C201.961 34.3438 202.448 34.2642 202.982 34.2642C203.349 34.2642 203.716 34.3073 204.08 34.3935C204.445 34.4796 204.778 34.6222 205.08 34.821C205.381 35.0166 205.623 35.2834 205.805 35.6214C205.991 35.9595 206.084 36.3821 206.084 36.8892V42H204.354V40.951H204.294C204.185 41.1631 204.031 41.362 203.832 41.5476C203.636 41.7299 203.389 41.8774 203.091 41.9901C202.796 42.0994 202.45 42.1541 202.052 42.1541ZM202.519 40.8317C202.88 40.8317 203.194 40.7604 203.459 40.6179C203.724 40.4721 203.928 40.2798 204.07 40.0412C204.216 39.8026 204.289 39.5424 204.289 39.2607V38.3608C204.233 38.4072 204.137 38.4503 204.001 38.4901C203.868 38.5298 203.719 38.5646 203.553 38.5945C203.388 38.6243 203.223 38.6508 203.061 38.674C202.899 38.6972 202.758 38.7171 202.638 38.7337C202.37 38.7701 202.13 38.8298 201.918 38.9126C201.705 38.9955 201.538 39.1115 201.415 39.2607C201.293 39.4065 201.232 39.5954 201.232 39.8274C201.232 40.1589 201.353 40.4091 201.594 40.5781C201.836 40.7472 202.145 40.8317 202.519 40.8317ZM207.973 42V31.8182H209.773V35.6264H209.847C209.94 35.4408 210.071 35.2436 210.24 35.0348C210.409 34.8227 210.638 34.642 210.926 34.4929C211.214 34.3404 211.582 34.2642 212.03 34.2642C212.62 34.2642 213.152 34.415 213.626 34.7166C214.103 35.0149 214.481 35.4574 214.759 36.044C215.041 36.6274 215.182 37.3433 215.182 38.1918C215.182 39.0303 215.044 39.7429 214.769 40.3295C214.494 40.9162 214.12 41.3636 213.646 41.6719C213.172 41.9801 212.635 42.1342 212.035 42.1342C211.597 42.1342 211.234 42.0613 210.946 41.9155C210.658 41.7696 210.426 41.594 210.25 41.3885C210.078 41.1797 209.943 40.9825 209.847 40.7969H209.743V42H207.973ZM209.738 38.1818C209.738 38.6757 209.808 39.1082 209.947 39.4794C210.089 39.8506 210.293 40.1406 210.558 40.3494C210.827 40.5549 211.152 40.6577 211.533 40.6577C211.93 40.6577 212.263 40.5516 212.532 40.3395C212.8 40.1241 213.003 39.8307 213.138 39.4595C213.278 39.085 213.347 38.6591 213.347 38.1818C213.347 37.7079 213.279 37.2869 213.143 36.919C213.008 36.5511 212.805 36.2628 212.537 36.054C212.268 35.8452 211.934 35.7408 211.533 35.7408C211.148 35.7408 210.822 35.8419 210.553 36.044C210.285 36.2462 210.081 36.5296 209.942 36.8942C209.806 37.2588 209.738 37.688 209.738 38.1818ZM220.093 42.1491C219.327 42.1491 218.666 41.9901 218.109 41.6719C217.555 41.3504 217.129 40.8963 216.831 40.3097C216.533 39.7197 216.384 39.0253 216.384 38.2266C216.384 37.4411 216.533 36.7517 216.831 36.1584C217.133 35.5618 217.554 35.0978 218.094 34.7663C218.634 34.4316 219.269 34.2642 219.998 34.2642C220.469 34.2642 220.913 34.3404 221.33 34.4929C221.751 34.642 222.123 34.8741 222.444 35.1889C222.769 35.5038 223.024 35.9048 223.21 36.392C223.395 36.8759 223.488 37.4527 223.488 38.1222V38.674H217.229V37.4609H221.763C221.76 37.1162 221.685 36.8097 221.539 36.5412C221.393 36.2694 221.19 36.0556 220.928 35.8999C220.669 35.7441 220.368 35.6662 220.023 35.6662C219.655 35.6662 219.332 35.7557 219.053 35.9347C218.775 36.1103 218.558 36.3423 218.402 36.6307C218.25 36.9157 218.172 37.2289 218.169 37.5703V38.6293C218.169 39.0734 218.25 39.4545 218.412 39.7727C218.575 40.0876 218.802 40.3295 219.093 40.4986C219.385 40.6643 219.726 40.7472 220.117 40.7472C220.379 40.7472 220.616 40.7107 220.828 40.6378C221.04 40.5616 221.224 40.4505 221.38 40.3047C221.536 40.1589 221.654 39.9782 221.733 39.7628L223.414 39.9517C223.307 40.3958 223.105 40.7836 222.807 41.1151C222.512 41.4432 222.134 41.6984 221.673 41.8807C221.213 42.0597 220.686 42.1491 220.093 42.1491ZM226.81 31.8182V42H225.011V31.8182H226.81ZM238.169 36.3821L236.529 36.5611C236.482 36.3954 236.401 36.2396 236.285 36.0938C236.172 35.9479 236.02 35.8303 235.828 35.7408C235.635 35.6513 235.4 35.6065 235.122 35.6065C234.747 35.6065 234.432 35.6877 234.177 35.8501C233.925 36.0125 233.801 36.223 233.804 36.4815C233.801 36.7036 233.882 36.8842 234.048 37.0234C234.217 37.1626 234.495 37.277 234.883 37.3665L236.186 37.6449C236.908 37.8007 237.445 38.0476 237.796 38.3857C238.151 38.7237 238.33 39.1662 238.333 39.7131C238.33 40.1937 238.189 40.6179 237.911 40.9858C237.636 41.3504 237.253 41.6354 236.762 41.8409C236.272 42.0464 235.708 42.1491 235.072 42.1491C234.137 42.1491 233.385 41.9536 232.815 41.5625C232.245 41.1681 231.905 40.6196 231.796 39.9169L233.551 39.7479C233.63 40.0926 233.799 40.3527 234.058 40.5284C234.316 40.7041 234.653 40.7919 235.067 40.7919C235.494 40.7919 235.838 40.7041 236.096 40.5284C236.358 40.3527 236.489 40.1357 236.489 39.8771C236.489 39.6584 236.404 39.4777 236.235 39.3352C236.07 39.1927 235.811 39.0833 235.46 39.0071L234.157 38.7337C233.425 38.5812 232.883 38.3243 232.531 37.9631C232.18 37.5985 232.006 37.1378 232.009 36.581C232.006 36.1103 232.134 35.7027 232.392 35.358C232.654 35.0099 233.017 34.7415 233.481 34.5526C233.948 34.3603 234.487 34.2642 235.097 34.2642C235.992 34.2642 236.696 34.4548 237.21 34.8359C237.727 35.2171 238.047 35.7325 238.169 36.3821ZM239.817 42V34.3636H241.537V35.6612H241.627C241.786 35.2237 242.05 34.8823 242.417 34.6371C242.785 34.3885 243.224 34.2642 243.735 34.2642C244.252 34.2642 244.688 34.3902 245.042 34.642C245.4 34.8906 245.652 35.2304 245.798 35.6612H245.878C246.047 35.237 246.332 34.8989 246.733 34.647C247.137 34.3918 247.616 34.2642 248.17 34.2642C248.872 34.2642 249.446 34.4863 249.89 34.9304C250.334 35.3745 250.556 36.0225 250.556 36.8743V42H248.751V37.1527C248.751 36.6787 248.625 36.3324 248.373 36.1136C248.122 35.8916 247.813 35.7805 247.449 35.7805C247.015 35.7805 246.675 35.9164 246.43 36.1882C246.188 36.4567 246.067 36.8063 246.067 37.2372V42H244.302V37.0781C244.302 36.6837 244.182 36.3688 243.944 36.1335C243.708 35.8982 243.4 35.7805 243.019 35.7805C242.76 35.7805 242.525 35.8468 242.313 35.9794C242.101 36.1087 241.932 36.2926 241.806 36.5312C241.68 36.7666 241.617 37.0417 241.617 37.3565V42H239.817Z" fill="#333333"/>
<rect x="191.5" y="54.5" width="289" height="101" rx="3.5" fill="#EBEBEB"/>
<path d="M203.773 63.6136V62.3636H212.5V63.6136H208.841V74H207.432V63.6136H203.773ZM216.886 74.1818C216.045 74.1818 215.32 73.9962 214.71 73.625C214.104 73.25 213.636 72.7273 213.307 72.0568C212.981 71.3826 212.818 70.5985 212.818 69.7045C212.818 68.8106 212.981 68.0227 213.307 67.3409C213.636 66.6553 214.095 66.1212 214.682 65.7386C215.273 65.3523 215.962 65.1591 216.75 65.1591C217.205 65.1591 217.653 65.2348 218.097 65.3864C218.54 65.5379 218.943 65.7841 219.307 66.125C219.67 66.4621 219.96 66.9091 220.176 67.4659C220.392 68.0227 220.5 68.7083 220.5 69.5227V70.0909H213.773V68.9318H219.136C219.136 68.4394 219.038 68 218.841 67.6136C218.648 67.2273 218.371 66.9223 218.011 66.6989C217.655 66.4754 217.235 66.3636 216.75 66.3636C216.216 66.3636 215.754 66.4962 215.364 66.7614C214.977 67.0227 214.68 67.3636 214.472 67.7841C214.263 68.2045 214.159 68.6553 214.159 69.1364V69.9091C214.159 70.5682 214.273 71.1269 214.5 71.5852C214.731 72.0398 215.051 72.3864 215.46 72.625C215.869 72.8598 216.345 72.9773 216.886 72.9773C217.239 72.9773 217.557 72.928 217.841 72.8295C218.129 72.7273 218.377 72.5758 218.585 72.375C218.794 72.1705 218.955 71.9167 219.068 71.6136L220.364 71.9773C220.227 72.4167 219.998 72.803 219.676 73.1364C219.354 73.4659 218.956 73.7235 218.483 73.9091C218.009 74.0909 217.477 74.1818 216.886 74.1818ZM223.305 65.2727L225.396 68.8409L227.487 65.2727H229.033L226.214 69.6364L229.033 74H227.487L225.396 70.6136L223.305 74H221.76L224.533 69.6364L221.76 65.2727H223.305ZM234.741 65.2727V66.4091H230.219V65.2727H234.741ZM231.537 63.1818H232.878V71.5C232.878 71.8788 232.933 72.1629 233.043 72.3523C233.156 72.5379 233.3 72.6629 233.474 72.7273C233.652 72.7879 233.84 72.8182 234.037 72.8182C234.185 72.8182 234.306 72.8106 234.401 72.7955C234.495 72.7765 234.571 72.7614 234.628 72.75L234.901 73.9545C234.81 73.9886 234.683 74.0227 234.52 74.0568C234.357 74.0947 234.151 74.1136 233.901 74.1136C233.522 74.1136 233.151 74.0322 232.787 73.8693C232.427 73.7064 232.128 73.4583 231.889 73.125C231.654 72.7917 231.537 72.3712 231.537 71.8636V63.1818Z" fill="#1F1F1F"/>
<rect x="191.5" y="54.5" width="289" height="101" rx="3.5" stroke="#545454"/>
</svg>

<svg width="672" height="188" fill="none" xmlns="http://www.w3.org/2000/svg"><path fill="#F6F6F6" d="M0 0h672v188H0z"/><path d="M192 42V31.82h1.85v8.63h4.48V42H192Zm10.05.15c-.48 0-.92-.08-1.3-.25a2.13 2.13 0 0 1-.92-.78 2.26 2.26 0 0 1-.33-1.26c0-.43.08-.79.24-1.07.15-.28.37-.5.65-.68.27-.17.58-.3.93-.38.34-.09.7-.15 1.08-.2l1.08-.12c.28-.04.48-.1.61-.18.13-.08.2-.2.2-.38v-.03c0-.37-.12-.66-.34-.87-.22-.2-.54-.3-.96-.3-.44 0-.79.09-1.05.28-.25.2-.43.42-.51.68l-1.69-.24a2.69 2.69 0 0 1 1.78-1.87 4.76 4.76 0 0 1 2.56-.1c.37.08.7.22 1 .42.3.2.54.46.72.8.2.34.28.76.28 1.27V42h-1.73v-1.05h-.06a2.19 2.19 0 0 1-1.2 1.04c-.3.1-.64.16-1.04.16Zm.47-1.32a2 2 0 0 0 .94-.21c.26-.15.47-.34.61-.58.15-.24.22-.5.22-.78v-.9a.84.84 0 0 1-.29.13 13.72 13.72 0 0 1-1.36.24c-.27.04-.51.1-.72.18-.21.09-.38.2-.5.35a.85.85 0 0 0-.19.57c0 .33.12.58.36.75.25.17.56.25.93.25Zm5.45 1.17V31.82h1.8v3.8h.08c.09-.18.22-.38.39-.59.17-.2.4-.39.69-.54a2.91 2.91 0 0 1 3.83 1.55c.28.59.42 1.3.42 2.15a5.1 5.1 0 0 1-.41 2.14 2.89 2.89 0 0 1-2.73 1.8c-.44 0-.8-.07-1.1-.21a2.22 2.22 0 0 1-.69-.53 3.3 3.3 0 0 1-.4-.6h-.1V42h-1.78Zm1.77-3.82c0 .5.07.93.2 1.3.15.37.35.66.62.87.27.2.6.3.97.3.4 0 .73-.1 1-.31.27-.22.47-.5.6-.88.15-.38.22-.8.22-1.28 0-.47-.07-.9-.2-1.26a1.9 1.9 0 0 0-.61-.87c-.27-.2-.6-.3-1-.3a1.6 1.6 0 0 0-1.59 1.14c-.14.37-.21.8-.21 1.3Zm10.35 3.97c-.76 0-1.42-.16-1.98-.48a3.23 3.23 0 0 1-1.28-1.36 4.57 4.57 0 0 1-.45-2.08c0-.79.15-1.48.45-2.07a3.39 3.39 0 0 1 3.17-1.9c.47 0 .91.08 1.33.23a3 3 0 0 1 1.11.7c.33.31.58.71.77 1.2.19.49.28 1.06.28 1.73v.55h-6.26v-1.2h4.53c0-.35-.07-.66-.22-.93a1.62 1.62 0 0 0-.61-.64 1.72 1.72 0 0 0-.9-.23c-.38 0-.7.09-.98.26-.28.18-.5.41-.65.7a2 2 0 0 0-.23.94v1.06c0 .44.08.82.24 1.14.16.32.4.56.68.73.3.16.64.25 1.03.25.26 0 .5-.04.7-.11.22-.08.4-.19.56-.34.16-.14.27-.32.35-.54l1.68.2c-.1.44-.3.82-.6 1.16-.3.32-.68.58-1.14.76-.46.18-.98.27-1.58.27Zm6.72-10.33V42h-1.8V31.82h1.8Zm11.36 4.56-1.64.18a1.33 1.33 0 0 0-.25-.47 1.21 1.21 0 0 0-.45-.35c-.2-.09-.43-.13-.7-.13-.38 0-.7.08-.95.24-.25.16-.38.37-.38.63 0 .22.08.4.25.54.17.14.44.26.83.35l1.3.27c.73.16 1.26.4 1.62.75.35.33.53.78.53 1.32 0 .48-.14.9-.42 1.28a2.7 2.7 0 0 1-1.15.85c-.49.2-1.05.3-1.69.3a3.9 3.9 0 0 1-2.25-.58c-.57-.4-.91-.94-1.02-1.64l1.75-.17c.08.34.25.6.5.78.27.17.6.26 1.02.26.42 0 .77-.09 1.03-.26.26-.18.39-.4.39-.65a.7.7 0 0 0-.25-.54 1.76 1.76 0 0 0-.78-.33l-1.3-.28a3.1 3.1 0 0 1-1.63-.77 1.9 1.9 0 0 1-.52-1.38c0-.47.12-.88.38-1.22a2.5 2.5 0 0 1 1.1-.8 4 4 0 0 1 1.6-.3c.9 0 1.6.2 2.12.58.52.38.84.9.96 1.54Zm1.65 5.62v-7.64h1.72v1.3h.09c.16-.44.42-.78.79-1.02.37-.25.8-.38 1.32-.38.51 0 .95.13 1.3.38a2 2 0 0 1 .76 1.02h.08c.17-.42.45-.76.85-1.01.4-.26.89-.39 1.44-.39.7 0 1.28.23 1.72.67.44.44.67 1.1.67 1.94V42h-1.8v-4.85c0-.47-.13-.82-.39-1.04a1.35 1.35 0 0 0-.92-.33c-.44 0-.77.14-1.02.4a1.5 1.5 0 0 0-.36 1.06V42h-1.77v-4.92c0-.4-.12-.71-.36-.95a1.25 1.25 0 0 0-.92-.35c-.26 0-.5.07-.7.2a1.3 1.3 0 0 0-.51.55c-.13.24-.2.51-.2.83V42h-1.8Z" fill="#333"/><rect x="191.5" y="54.5" width="289" height="101" rx="3.5" fill="#EBEBEB"/><path d="M203.77 63.61v-1.25h8.73v1.25h-3.66V74h-1.4V63.61h-3.67Zm13.12 10.57a3.73 3.73 0 0 1-3.58-2.13 5.34 5.34 0 0 1-.5-2.35c0-.89.17-1.68.5-2.36a3.7 3.7 0 0 1 3.44-2.18c.46 0 .9.07 1.35.23a3.34 3.34 0 0 1 2.08 2.08c.21.55.32 1.24.32 2.05v.57h-6.73v-1.16h5.37c0-.5-.1-.93-.3-1.32a2.22 2.22 0 0 0-2.09-1.25 2.47 2.47 0 0 0-2.28 1.42 3 3 0 0 0-.31 1.36v.77c0 .66.11 1.22.34 1.68.23.45.55.8.96 1.03.4.24.88.36 1.43.36.35 0 .67-.05.95-.15.29-.1.54-.25.75-.45.2-.2.37-.46.48-.77l1.3.37a2.9 2.9 0 0 1-.7 1.16c-.32.33-.71.58-1.19.77-.47.18-1 .27-1.6.27Zm6.42-8.9 2.09 3.56 2.09-3.57h1.54l-2.82 4.37 2.82 4.36h-1.54l-2.1-3.39-2.08 3.39h-1.55l2.77-4.36-2.77-4.37h1.55Zm11.43 0v1.13h-4.52v-1.14h4.52Zm-3.2-2.1h1.34v8.32c0 .38.05.66.16.85.12.19.26.31.43.38.18.06.37.09.57.09.15 0 .27 0 .36-.02l.23-.05.27 1.2a2.73 2.73 0 0 1-1 .16 2.7 2.7 0 0 1-1.11-.24 2.21 2.21 0 0 1-.9-.75 2.14 2.14 0 0 1-.35-1.26v-8.68Z" fill="#1F1F1F"/><rect x="191.5" y="54.5" width="289" height="101" rx="3.5" stroke="#545454"/></svg>
